X: 10965
T: Drumshambo, The
R: jig
M: 6/8
K: Eminor
|:BEF G2A|Beg edc|~B3 GAB|AFD dAF|
GEF G2A|Beg edc|~B3 GAB|1 AFD E2A:|2 AFD E2B||
|:gfe fed|Bee Bee|gfe fed|~B3 e2f|
gag fed|Bee Bee|gfe fed|1 BAF E2B:|2 ~B3 edc||

